X:4
T:Jouyssance vous donneray
M:3/4
L:1/8
B:L'Orchesographie de Thoinot Arbeau (Lengres, France, 1589)
F:http://graner.net/nicolas/arbeau/orcheso.abc
R:basse-dance
S:cf. http://graner.net/nicolas/arbeau/
Z:Nicolas Graner, Sep. 2001
K:C
P:Battement du tambour ou tabourin
F2 FF FF | F2 FF FF | F2 FF FF | F2 FF FF |
P:Reverence
D2 D2 D2 | F2 ED C2 | F2 GE FG | A4 A2 |
P:Branle
AG FG AB | c2 cB A2 | BA GF GE | F4 F2 |
P:Deux Simples
A2 G2 A2 | D4 D2 | EF GF ED | C4 C2 |
P:Double
cB AG FE | F2 BA GF | ED CD DC | D4 D2 |
P:Reprise
D2 D2 D2 | F2 ED C2 | F2 GE FG | A4 A2 |
P:Double
AG FG AB | c2 cB A2 | BA GF GE | F4 F2 |
P:Reprise
A2 G2 A2 | D4 D2 | EF GF ED | C4 C2 |
P:Branle
cB AG FE | F2 BA GF | ED CD DC | D4 D2 |
P:Deux Simples
d2 d2 d2 | cB cd e2 | dc BA BG | A4 A2 |
P:Double
AG AB cd | e2 dc BA | BA GA BG | A4 A2 |
P:Double
d2 d2 d2 | cB cd e2 | dc BA BG | A4 A2 |
P:Double
AG AB cd | e2 dc BA | BA GA BG | A4 A2 |
P:Reprise
D2 D2 D2 | F2 ED C2 | F2 GE FG | A4 A2 |
P:Double
AG FG AB | c2 cB A2 | BA GF GE | F4 F2 |
P:Reprise
A2 G2 A2 | D4 D2 | EF GF ED | C4 C2 |
P:Branle
cB AG FE | F2 BA GF | ED CD DC | D4 D2 ||
P:Deux Simples
DC DE DE | F2 ED C2 | FE DE FG | A4 A2 |
P:Double
AG FG AB | cB cd cA | BA GF GE | F4 F2 |
P:Reprise
A2 G2 A2 | D4 D2 | EF GF ED | C4 C2 |
P:Branle & Cong
cB AG FE | F2 BA GF | ED CD DC | H D8 ||
P:Branle
d2 d2 d2 | cB cd e2 | dc BA BG | A4 A2 |
P:Double
AG AB cd | e2 dc BA | BA GA BG | A4 A2 |
P:Reprise
d2 d2 d2 | cB cd e2 | dc BA BG | A4 A2 |
P:Branle
AG AB cd | e2 dc BA | BA GA BG | A4 A2 |
P:Deux Simples
DC DE DE | F2 ED C2 | FE DE FG | A4 A2 |
P:Double
AG FG AB | cB cd cA | BA GF GE | F4 F2 |
P:Double
A2 G2 A2 | D4 D2 | EF GF ED | C4 C2 |
P:Double
cB AG FE | F2 BA GF | ED CD DC | D4 D2 |
P:Reprise
D2 D2 D2 | F2 ED C2 | F2 GE FG | A4 A2 |
P:Double
AG FG AB | c2 cB A2 | BA GF GE | F4 F2 |
P:Reprise
A2 G2 A2 | D4 D2 | EF GF ED | C4 C2 |
P:Branle & Cong
cB AG FE | F2 BA GF | ED CD DC | H D8 ||
